X:45
T:Sonata Op.5 No.1 - Preludio
C:Corelli, A.
M:4/4
L:1/8
Q:1/4=76
K:D
|:F2|B4 cB A2|G2 FE D2 C2|D4 EF G2|A4 G2 F2|
E4 FG A2|G2 FE D2 C2|D4 CD E2|F4 F2:|

